static/assets/images/tokens/sweth.svg

<svg width="256" height="256" viewBox="0 0 256 256" fill="none" xmlns="http://www.w3.org/2000/svg">
<path d="M0 128C0 198.692 57.3075 256 128 256C198.692 256 256 198.692 256 128C256 57.3075 198.692 0 128 0C57.3075 0 0 57.3075 0 128Z" fill="url(#paint0_linear_4193_4264)"/>
<path fill-rule="evenodd" clip-rule="evenodd" d="M71.4012 130.154C83.2472 136.095 99.9961 134.352 121.647 124.926C123.805 123.986 125.949 123.139 128.073 122.38V36.757L71.4012 130.154ZM128.073 142.855C127.203 143.215 126.325 143.589 125.437 143.975C105.857 152.499 90.2868 154.74 78.7254 150.698C76.6755 149.981 74.983 148.915 73.5868 147.624L128.073 224.077V142.855Z" fill="white"/>
<path d="M128.073 224.077L184.196 145.021C168.369 132.977 151.196 133.284 128.073 142.855V224.077Z" fill="#9FB4FC"/>
<path d="M180.09 122.815L128.073 36.757V122.38C148.351 115.142 166.939 116.025 180.09 122.815Z" fill="#9FB4FC"/>
<defs>
<linearGradient id="paint0_linear_4193_4264" x1="104.031" y1="264.16" x2="164.256" y2="-6.34678" gradientUnits="userSpaceOnUse">
<stop stop-color="#3068EF"/>
<stop offset="1" stop-color="#1322AC"/>
</linearGradient>
</defs>
</svg>

<svg xmlns="http://www.w3.org/2000/svg" fill="none" viewBox="0 0 256 256"><path fill="url(#paint0_linear_4193_4264)" d="M0 128c0 70.692 57.308 128 128 128s128-57.308 128-128S198.692 0 128 0 0 57.308 0 128"/><path fill="#fff" fill-rule="evenodd" d="M71.401 130.154q17.77 8.911 50.246-5.228 3.239-1.409 6.426-2.546V36.757zm56.672 12.701q-1.304.54-2.636 1.12-29.37 12.786-46.712 6.723a14.6 14.6 0 0 1-5.138-3.074l54.486 76.453z" clip-rule="evenodd"/><path fill="#9FB4FC" d="m128.073 224.077 56.123-79.056c-15.827-12.044-33-11.737-56.123-2.166zm52.017-101.262-52.017-86.058v85.623c20.278-7.238 38.866-6.355 52.017.435"/><defs><linearGradient id="paint0_linear_4193_4264" x1="104.031" x2="164.256" y1="264.16" y2="-6.347" gradientUnits="userSpaceOnUse"><stop stop-color="#3068EF"/><stop offset="1" stop-color="#1322AC"/></linearGradient></defs></svg>
